X: 42127
T: Washington Square Park
R: three-two
M: 3/2
K: Emajor
c2BGFE|:F2G2 E2B,2 B,CE2|F2E2 E2B,2 B,CE2|A2G2 B2G2 F2E2|F2FG E2 c2BGFE|
F2G2 E2B,2 B,CE2|F2E2 E2B,2 B,CE2|A2G2 B2G2 F2E2|1 E6 c2BGFE:|2 E8 Bcef||
|:g2e2 f2e2 Bcef|b2e2 f2e2 B=cef|=g2e2 e2=d2 =d2B2|A2=d2 B2A2 Bcef|
g2e2 f2e2 Bcef|b2e2 f2e2 B=cef|=g2e2 e2 =d2 =d2 B2|1 A8 Bcef:|2 B6 c2BGFE||

